X: 2472
T:Sailor's Return, The
T:Sailor's Farewell, The
T:Belharbour Reel, The
R:reel
Z:id:hn-reel-193
M:C|
K:G
DG~G2 DGBd|~g3d egdB|A2GB A2BA|GBAF GFEF|
DG~G2 DGBd|g2gd egdB|G2 (3Bcd gedc|1 BGAF G2GE:|2 BGAF G2AB||
|:dggf gGBd|g2af gfed|eaag abag|e2ag edBc|
dggf gGBd|g2af gedB|GA (3Bcd gedc|1 BGAF G2AB:|2 BGAF G2GE||
